public/pieces/icpieces/bN.svg

<svg height="368" width="368" xmlns="http://www.w3.org/2000/svg"><path d="m183 212c-7.899 22.791-31.346 38.48-46.714 56-4.85 5.53-9.325 11.33-12.501 18-1.668 3.503-2.263 7.521-4.084 10.91-3.146 5.853-7.554 9.174-9.032 16.09-1.897 8.88-.669 18.949-.669 28h204c0-9.243 1.554-20.091-1.221-29-2.146-6.891-8.454-11.936-9.605-19-4.495-27.603-9.07-55.048-16.753-82-3.844-13.487-7.706-27.544-14.311-40-8.112-15.298-19.862-28.893-32.11-40.996-9.448-9.336-21.52-16.037-30.775-25.33-7.685-7.7151-6.683-23.0915-21.225-22.6146-2.136.0701-4.144.5119-5.961 1.6829-3.019 1.9463-5.182 5.0745-8.039 7.2577-3.865-7.4283-12.045-11.9508-19.96-6.9908-4.538 2.8439-5.36 7.7021-8.549 11.5664-5.767 6.9874-13.215 12.7834-19.401 19.4244-6.618 7.104-14.472 14.43-19.185 23-3.406 6.193-3.624 13.211-7.949 19-11.0632 14.808-28.1071 28.022-31.4923 47-1.6371 9.178-2.2543 20.068.9244 29 4.9417 13.885 22.61 26.055 37.6119 24.812 11.882-.985 20.839-10.01 30-16.66 8.458-6.14 18.061-9.871 27-15.167 7.033-4.167 13.097-9.672 20-13.985z" fill="#fff"/><path d="m79 202c4.1669 0 10.1792-1.073 13.9367 1.028 2.5689 1.436 3.8289 4.237 1.6868 6.654-3.603 4.065-12.7457 2.318-17.6235 2.318 0 11.196-.2458 18.551 8 27 5.2177-3.675 9.4644-8.525 14-12.998 1.818-1.793 4.182-4.9 6.998-4.951 2.475-.045 5.083 2.642 7.002 3.949-6.421 6.421-13.7645 12.568-19 20 17.016 7.192 27.814-7.168 41-15.564 9.031-5.75 19.245-9.411 28-15.58 5.068-3.571 9.992-7.326 15-10.978 1.958-1.428 4.362-3.607 6.996-3.135 2.267.406 4.086 2.501 5.351 4.273 5.55 7.777.422 17.035-4.045 23.984-11.042 17.175-27.5 29.691-40.726 45-6.558 7.592-13.058 14.728-14.576 25h162c-.047-17.178-4.882-35.279-8.576-52-5.1-23.093-10.043-47.699-20.694-69-12.357-24.714-35.011-46.446-57.73-61.667-2.75-1.842-5.978-3.572-7.697-6.517-2.482-4.253-2.928-15.0264-9.253-15.8947-2.848-.391-4.585 3.0853-6.375 4.6891-2.596 2.3258-6.166 3.7976-9.675 2.9406-4.359-1.0643-8.286-9.0015-12.787-7.7995-2.971.7934-3.226 4.8365-4.515 7.0787-1.174 2.0408-2.962 3.5638-4.717 5.0898-11.787 10.252-25.539 22.845-34.011 36.08-3.559 5.56-3.539 12.355-6.901 18-5.729 9.62-14.5711 18.323-21.6832 27-4.1947 5.118-8.3335 9.258-9.3858 16z"/><path d="m209 144c4.353 10.349 12.955 19.207 18.573 29 11.79 20.555 21.119 42.649 25.624 66 1.138 5.902 2.292 11.999 2.713 18 .182 2.578-.458 6.216 1.269 8.397 1.454 1.835 4.668 1.797 6.763 1.454 4.534-.743 4.203-5.187 3.773-8.851-1.029-8.746-2.567-17.497-4.866-26-8.587-31.75-23.73-70.84-53.849-88m-57 14c-5.193-2.179-12.402-1.038-17.999-.999-1.891.013-4.669-.335-6.219 1.027-3.421 3.007 1.43 10.677 5.233 10.78 2.581.07 4.966-2.405 6.985-3.708 3.911-2.523 8.107-4.533 12-7.1z" fill="#fff"/><path d="m120 331h184c0-6.57 1.71-19.302-6.055-22.397-3.73-1.486-8.998-.603-12.945-.603h-26-92-30c-3.763 0-9.417-1.012-12.772 1.028-6.178 3.755-4.228 15.929-4.228 21.972z"/></svg>

<?xml version="1.0" standalone="yes"?>
<svg xmlns="http://www.w3.org/2000/svg" width="368" height="368">
<path style="fill:#ffffff; stroke:none;" d="M183 212C175.101 234.791 151.654 250.48 136.286 268C131.436 273.53 126.961 279.33 123.785 286C122.117 289.503 121.522 293.521 119.701 296.91C116.555 302.763 112.147 306.084 110.669 313C108.772 321.88 110 331.949 110 341L314 341C314 331.757 315.554 320.909 312.779 312C310.633 305.109 304.325 300.064 303.174 293C298.679 265.397 294.104 237.952 286.421 211C282.577 197.513 278.715 183.456 272.11 171C263.998 155.702 252.248 142.107 240 130.004C230.552 120.668 218.48 113.967 209.225 104.674C201.54 96.9589 202.542 81.5825 188 82.0594C185.864 82.1295 183.856 82.5713 182.039 83.7423C179.02 85.6886 176.857 88.8168 174 91C170.135 83.5717 161.955 79.0492 154.04 84.0092C149.502 86.8531 148.68 91.7113 145.491 95.5756C139.724 102.563 132.276 108.359 126.09 115C119.472 122.104 111.618 129.43 106.905 138C103.499 144.193 103.281 151.211 98.956 157C87.8928 171.808 70.8489 185.022 67.4637 204C65.8266 213.178 65.2094 224.068 68.3881 233C73.3298 246.885 90.9981 259.055 106 257.812C117.882 256.827 126.839 247.802 136 241.152C144.458 235.012 154.061 231.281 163 225.985C170.033 221.818 176.097 216.313 183 212z"/>
<path style="fill:#000000; stroke:none;" d="M79 202C83.1669 202 89.1792 200.927 92.9367 203.028C95.5056 204.464 96.7656 207.265 94.6235 209.682C91.0205 213.747 81.8778 212 77 212C77 223.196 76.7542 230.551 85 239C90.2177 235.325 94.4644 230.475 99 226.002C100.818 224.209 103.182 221.102 105.998 221.051C108.473 221.006 111.081 223.693 113 225C106.579 231.421 99.2355 237.568 94 245C111.016 252.192 121.814 237.832 135 229.436C144.031 223.686 154.245 220.025 163 213.856C168.068 210.285 172.992 206.53 178 202.878C179.958 201.45 182.362 199.271 184.996 199.743C187.263 200.149 189.082 202.244 190.347 204.016C195.897 211.793 190.769 221.051 186.302 228C175.26 245.175 158.802 257.691 145.576 273C139.018 280.592 132.518 287.728 131 298L293 298C292.953 280.822 288.118 262.721 284.424 246C279.324 222.907 274.381 198.301 263.73 177C251.373 152.286 228.719 130.554 206 115.333C203.25 113.491 200.022 111.761 198.303 108.816C195.821 104.563 195.375 93.7896 189.05 92.9213C186.202 92.5303 184.465 96.0066 182.675 97.6104C180.079 99.9362 176.509 101.408 173 100.551C168.641 99.4867 164.714 91.5495 160.213 92.7515C157.242 93.5449 156.987 97.588 155.698 99.8302C154.524 101.871 152.736 103.394 150.981 104.92C139.194 115.172 125.442 127.765 116.97 141C113.411 146.56 113.431 153.355 110.069 159C104.34 168.62 95.4979 177.323 88.3858 186C84.1911 191.118 80.0523 195.258 79 202z"/>
<path style="fill:#ffffff; stroke:none;" d="M209 144C213.353 154.349 221.955 163.207 227.573 173C239.363 193.555 248.692 215.649 253.197 239C254.335 244.902 255.489 250.999 255.91 257C256.092 259.578 255.452 263.216 257.179 265.397C258.633 267.232 261.847 267.194 263.942 266.851C268.476 266.108 268.145 261.664 267.715 258C266.686 249.254 265.148 240.503 262.849 232C254.262 200.25 239.119 161.16 209 144M152 158C146.807 155.821 139.598 156.962 134.001 157.001C132.11 157.014 129.332 156.666 127.782 158.028C124.361 161.035 129.212 168.705 133.015 168.808C135.596 168.878 137.981 166.403 140 165.1C143.911 162.577 148.107 160.567 152 158z"/>
<path style="fill:#000000; stroke:none;" d="M120 331L304 331C304 324.43 305.71 311.698 297.945 308.603C294.215 307.117 288.947 308 285 308L259 308L167 308L137 308C133.237 308 127.583 306.988 124.228 309.028C118.05 312.783 120 324.957 120 331z"/>
</svg>
